src/assets/logo.svg

<svg xmlns="http://www.w3.org/2000/svg" height="178" width="891"  xmlns:v="https://vecta.io/nano"><path d="M88.09 129.04h0q-12.1 0-21.73-5.12h0 0q-9.62-5.11-15.12-14.24h0 0q-5.5-9.13-5.5-20.68h0 0q0-11.55 5.5-20.68h0 0q5.5-9.13 15.12-14.24h0 0q9.63-5.12 21.73-5.12h0 0q10.56 0 19.03 3.74h0 0q8.47 3.74 14.08 10.78h0l-13.86 12.54h0Q99.86 67 89.19 67h0 0q-6.27 0-11.16 2.75h0 0q-4.9 2.75-7.59 7.75h0 0q-2.7 5.01-2.7 11.5h0 0q0 6.49 2.7 11.5h0 0q2.69 5 7.59 7.75h0 0Q82.92 111 89.19 111h0 0q10.67 0 18.15-9.02h0l13.86 12.54h0q-5.61 7.04-14.08 10.78h0 0q-8.47 3.74-19.03 3.74h0zm64.35-18.37h40.26v16.83h-61.82v-77h60.39v16.83h-38.83v12.98h34.21v16.28h-34.21v14.08zm108.9-60.17h21.56l-33 77h-21.45l-32.89-77h23.54l20.9 50.16 21.34-50.16zm27.72 77v-77h21.78v77h-21.78z" fill="#141412"/><path d="M337.931 73.371c-.181-.641-.267-1.301-.327-1.85l12.602 12.581c-6.809-2.462-11.048-2.127-12.275-10.731" fill="#323394"/><path d="M418.722 115.954c-8.831 2.554-17.685 4.158-26.022 4.703l31.227 31.223 11.095-41.367c-4.911 1.904-10.333 3.709-16.3 5.441m27.788-51.555c-11.379 7.401-25.311 13.781-38.275 17.489-17.806 5.161-35.959 6.776-49.823 4.384l-21.157-21.185 117.507-31.565-8.252 30.877" fill="#c41333"/><path d="M463.756 86.589c-8.896 10.981-23.162 18.734-46.193 25.432-23.495 6.697-46.936 6.516-59.736-.58-4.496-2.516-7.312-5.601-8.392-9.293l-6.739-16.765c.268.129.535.267.766.5 13.803 7.585 39.672 7.634 65.947.128 21.021-6.073 43.057-18.351 54.348-30.131v30.709m-39.833-48.968L341.842 59.5c8.453-12.008 28.283-23.847 51.221-30.49 6.447-1.871 20.849-4.191 30.861-3.807v12.418" fill="#323394"/><path d="M518.18 65.98h0q2.88 1.01 4.52 3.14h0 0q1.63 2.14 1.63 5.16h0 0q0 4.42-3.55 6.82h0 0q-3.56 2.4-10.28 2.4h0-18.14V49.9h17.18 0q6.44 0 9.8 2.38h0 0q3.36 2.37 3.36 6.4h0 0q0 2.4-1.18 4.3h0 0q-1.18 1.9-3.34 3h0zm-9.88-9.22h-6.53v6.48h6.53 0q4.8 0 4.8-3.26h0 0q0-3.22-4.8-3.22h0zm1.44 19.88h0q4.99 0 4.99-3.41h0 0q0-3.41-4.99-3.41h0-7.97v6.82h7.97zm35.04 7.53h0q-7.49 0-11.64-4.08h0 0q-4.16-4.08-4.16-11.57h0V49.9h9.51v18.34h0q0 8.06 6.38 8.06h0 0q6.34 0 6.34-8.06h0V49.9h9.36v18.62h0q0 7.49-4.15 11.57h0 0q-4.16 4.08-11.64 4.08h0zm38.97 0h0q-5.28 0-9.48-2.23h0 0q-4.2-2.23-6.6-6.22h0 0q-2.4-3.98-2.4-9.02h0 0q0-5.04 2.4-9.02h0 0q2.4-3.99 6.6-6.22h0 0q4.2-2.23 9.48-2.23h0 0q4.61 0 8.31 1.63h0 0q3.69 1.63 6.14 4.7h0l-6.05 5.48h0q-3.26-3.94-7.92-3.94h0 0q-2.73 0-4.87 1.2h0 0q-2.14 1.2-3.31 3.38h0 0q-1.18 2.19-1.18 5.02h0 0q0 2.83 1.18 5.02h0 0q1.17 2.18 3.31 3.38h0 0q2.14 1.2 4.87 1.2h0 0q4.66 0 7.92-3.94h0l6.05 5.48h0q-2.45 3.07-6.14 4.7h0 0q-3.7 1.63-8.31 1.63h0zm41.14-34.27h9.5v33.6h-9.5V70.4h-12.96v13.1h-9.51V49.9h9.51v12.62h12.96V49.9zm28.03 34.27h0q-4.08 0-7.92-1.01h0 0q-3.84-1-6.24-2.68h0l3.12-7.01h0q2.26 1.49 5.23 2.4h0 0q2.98.91 5.86.91h0 0q5.47 0 5.47-2.74h0 0q0-1.44-1.56-2.13h0 0q-1.56-.7-5.02-1.47h0 0q-3.79-.81-6.33-1.75h0 0q-2.55-.93-4.37-3h0 0q-1.82-2.06-1.82-5.57h0 0q0-3.07 1.68-5.54h0 0q1.68-2.47 5.01-3.91h0 0q3.34-1.44 8.19-1.44h0 0q3.31 0 6.52.74h0 0q3.22.75 5.67 2.19h0l-2.93 7.05h0q-4.8-2.59-9.31-2.59h0 0q-2.83 0-4.13.84h0 0q-1.3.84-1.3 2.18h0 0q0 1.35 1.54 2.02h0 0q1.54.67 4.94 1.39h0 0q3.84.82 6.36 1.75h0 0q2.52.94 4.37 2.98h0 0q1.85 2.04 1.85 5.54h0 0q0 3.03-1.68 5.48h0 0q-1.68 2.44-5.04 3.91h0 0q-3.36 1.46-8.16 1.46h0zm18.19-10.85v-7h14.02v7h-14.02zm40.47 10.18l-6.1-8.93h-5.18v8.93h-9.51V49.9h15.36 0q4.56 0 7.92 1.51h0 0q3.36 1.51 5.19 4.32h0 0q1.82 2.81 1.82 6.6h0 0q0 3.65-1.7 6.36h0 0q-1.71 2.71-4.88 4.25h0l7.25 10.56h-10.17zm-.1-21.17h0q0-2.35-1.49-3.65h0 0q-1.49-1.29-4.41-1.29h0-5.28v9.84h5.28 0q2.92 0 4.41-1.27h0 0q1.49-1.28 1.49-3.63h0zm31.78 21.84h0q-5.33 0-9.58-2.25h0 0q-4.25-2.26-6.67-6.24h0 0q-2.43-3.99-2.43-8.98h0 0q0-4.99 2.43-8.98h0 0q2.42-3.98 6.67-6.24h0 0q4.25-2.25 9.58-2.25h0 0q5.32 0 9.57 2.25h0 0q4.25 2.26 6.67 6.24h0 0q2.43 3.99 2.43 8.98h0 0q0 4.99-2.43 8.98h0 0q-2.42 3.98-6.67 6.24h0 0q-4.25 2.25-9.57 2.25h0zm0-7.87h0q2.54 0 4.6-1.2h0 0q2.07-1.2 3.27-3.38h0 0q1.2-2.19 1.2-5.02h0 0q0-2.83-1.2-5.02h0 0q-1.2-2.18-3.27-3.38h0 0q-2.06-1.2-4.6-1.2h0 0q-2.55 0-4.61 1.2h0 0q-2.07 1.2-3.27 3.38h0 0q-1.2 2.19-1.2 5.02h0 0q0 2.83 1.2 5.02h0 0q1.2 2.18 3.27 3.38h0 0q2.06 1.2 4.61 1.2h0zm46.12-26.4h9.51v33.6h-9.51V70.4h-12.96v13.1h-9.5V49.9h9.5v12.62h12.96V49.9zm37.01 33.6l-6.09-8.93h-5.19v8.93h-9.5V49.9h15.36 0q4.56 0 7.92 1.51h0 0q3.36 1.51 5.18 4.32h0 0q1.83 2.81 1.83 6.6h0 0q0 3.65-1.71 6.36h0 0q-1.7 2.71-4.87 4.25h0l7.25 10.56h-10.18zm-.09-21.17h0q0-2.35-1.49-3.65h0 0q-1.49-1.29-4.42-1.29h0-5.28v9.84h5.28 0q2.93 0 4.42-1.27h0 0q1.49-1.28 1.49-3.63h0zM517.51 127.5l-2.64-6.53h-14.21l-2.64 6.53h-9.69l14.83-33.6h9.36l14.88 33.6h-9.89zm-14.06-13.54h8.64l-4.32-10.75-4.32 10.75zm51.79 13.54l-2.64-6.53h-14.21l-2.64 6.53h-9.69l14.83-33.6h9.36l14.88 33.6h-9.89zm-14.06-13.54h8.64l-4.32-10.75-4.32 10.75zm47.42 13.54l-6.1-8.93h-5.18v8.93h-9.5V93.9h15.36 0q4.56 0 7.92 1.51h0 0q3.36 1.51 5.18 4.32h0 0q1.82 2.81 1.82 6.6h0 0q0 3.65-1.7 6.36h0 0q-1.7 2.71-4.87 4.25h0l7.25 10.56H588.6zm-.1-21.17h0q0-2.35-1.48-3.65h0 0q-1.49-1.29-4.42-1.29h0-5.28v9.84h5.28 0q2.93 0 4.42-1.27h0 0q1.48-1.28 1.48-3.63h0zm39.99 21.17l-2.64-6.53h-14.21L609 127.5h-9.7l14.84-33.6h9.36l14.88 33.6h-9.89zm-14.07-13.54h8.64l-4.32-10.75-4.32 10.75zm42.15 14.21h0q-7.49 0-11.64-4.08h0 0q-4.15-4.08-4.15-11.57h0V93.9h9.5v18.34h0q0 8.06 6.38 8.06h0 0q6.34 0 6.34-8.06h0V93.9h9.36v18.62h0q0 7.49-4.15 11.57h0 0q-4.15 4.08-11.64 4.08h0z" fill="#141412"/></svg>

<?xml version="1.0" encoding="UTF-8" standalone="no"?>
<svg
   xmlns:dc="http://purl.org/dc/elements/1.1/"
   xmlns:cc="http://creativecommons.org/ns#"
   xmlns:rdf="http://www.w3.org/1999/02/22-rdf-syntax-ns#"
   xmlns:svg="http://www.w3.org/2000/svg"
   xmlns="http://www.w3.org/2000/svg"
   xmlns:sodipodi="http://sodipodi.sourceforge.net/DTD/sodipodi-0.dtd"
   xmlns:inkscape="http://www.inkscape.org/namespaces/inkscape"
   inkscape:version="1.0 (4035a4fb49, 2020-05-01)"
   sodipodi:docname="logo.svg"
   id="svg22"
   xml:space="preserve"
   enable-background="new 0 0 891 178"
   viewBox="0 0 891 178"
   height="178px"
   width="891px"
   y="0px"
   x="0px"
   version="1.1"><metadata
     id="metadata28"><rdf:RDF><cc:Work
         rdf:about=""><dc:format>image/svg+xml</dc:format><dc:type
           rdf:resource="http://purl.org/dc/dcmitype/StillImage" /><dc:title></dc:title></cc:Work></rdf:RDF></metadata><defs
     id="defs26" /><sodipodi:namedview
     inkscape:current-layer="svg22"
     inkscape:window-maximized="1"
     inkscape:window-y="0"
     inkscape:window-x="0"
     inkscape:cy="89"
     inkscape:cx="445.5"
     inkscape:zoom="1.4792368"
     showgrid="false"
     id="namedview24"
     inkscape:window-height="1016"
     inkscape:window-width="1920"
     inkscape:pageshadow="2"
     inkscape:pageopacity="0"
     guidetolerance="10"
     gridtolerance="10"
     objecttolerance="10"
     borderopacity="1"
     bordercolor="#666666"
     pagecolor="#ffffff" /><path
     id="path4"
     d="M88.09 129.04L88.09 129.04Q75.99 129.04 66.36 123.92L66.36 123.92L66.36 123.92Q56.74 118.81 51.24 109.68L51.24 109.68L51.24 109.68Q45.74 100.55 45.74 89L45.74 89L45.74 89Q45.74 77.45 51.24 68.32L51.24 68.32L51.24 68.32Q56.74 59.19 66.36 54.08L66.36 54.08L66.36 54.08Q75.99 48.96 88.09 48.96L88.09 48.96L88.09 48.96Q98.65 48.96 107.12 52.70L107.12 52.70L107.12 52.70Q115.59 56.44 121.20 63.48L121.20 63.48L107.34 76.02L107.34 76.02Q99.86 67 89.19 67L89.19 67L89.19 67Q82.92 67 78.03 69.75L78.03 69.75L78.03 69.75Q73.13 72.50 70.44 77.50L70.44 77.50L70.44 77.50Q67.74 82.51 67.74 89L67.74 89L67.74 89Q67.74 95.49 70.44 100.50L70.44 100.50L70.44 100.50Q73.13 105.50 78.03 108.25L78.03 108.25L78.03 108.25Q82.92 111 89.19 111L89.19 111L89.19 111Q99.86 111 107.34 101.98L107.34 101.98L121.20 114.52L121.20 114.52Q115.59 121.56 107.12 125.30L107.12 125.30L107.12 125.30Q98.65 129.04 88.09 129.04L88.09 129.04ZM152.44 110.67L192.70 110.67L192.70 127.50L130.88 127.50L130.88 50.50L191.27 50.50L191.27 67.33L152.44 67.33L152.44 80.31L186.65 80.31L186.65 96.59L152.44 96.59L152.44 110.67ZM261.34 50.50L282.90 50.50L249.90 127.50L228.45 127.50L195.56 50.50L219.10 50.50L240.00 100.66L261.34 50.50ZM289.06 127.50L289.06 50.50L310.84 50.50L310.84 127.50L289.06 127.50Z"
     font-weight="bold"
     fill="#141412" /><g
     id="g16"><path
       id="path6"
       d="M337.931,73.371c-0.181-0.641-0.267-1.301-0.327-1.85l12.602,12.581 C343.397,81.64,339.158,81.975,337.931,73.371"
       fill="#323394" /><path
       id="path8"
       d="M418.722,115.954c-8.831,2.554-17.685,4.158-26.022,4.703l31.227,31.223l11.095-41.367 C430.111,112.417,424.689,114.222,418.722,115.954"
       fill="#c41333" /><path
       id="path10"
       d="M446.51,64.399c-11.379,7.401-25.311,13.781-38.275,17.489c-17.806,5.161-35.959,6.776-49.823,4.384 l-21.157-21.185l117.507-31.565L446.51,64.399"
       fill="#c41333" /><path
       id="path12"
       d="M463.756,86.589c-8.896,10.981-23.162,18.734-46.193,25.432c-23.495,6.697-46.936,6.516-59.736-0.58 c-4.496-2.516-7.312-5.601-8.392-9.293l-6.739-16.765c0.268,0.129,0.535,0.267,0.766,0.5c13.803,7.585,39.672,7.634,65.947,0.128 c21.021-6.073,43.057-18.351,54.348-30.131V86.589"
       fill="#323394" /><path
       id="path14"
       d="M423.924,37.621l-82.082,21.879c8.453-12.008,28.283-23.847,51.221-30.49 c6.447-1.871,20.849-4.191,30.861-3.807V37.621"
       fill="#323394" /></g><path
     id="path18"
     d="M518.18 65.98L518.18 65.98Q521.06 66.99 522.70 69.12L522.70 69.12L522.70 69.12Q524.33 71.26 524.33 74.28L524.33 74.28L524.33 74.28Q524.33 78.70 520.78 81.10L520.78 81.10L520.78 81.10Q517.22 83.50 510.50 83.50L510.50 83.50L492.36 83.50L492.36 49.90L509.54 49.90L509.54 49.90Q515.98 49.90 519.34 52.28L519.34 52.28L519.34 52.28Q522.70 54.65 522.70 58.68L522.70 58.68L522.70 58.68Q522.70 61.08 521.52 62.98L521.52 62.98L521.52 62.98Q520.34 64.88 518.18 65.98L518.18 65.98ZM508.30 56.76L501.77 56.76L501.77 63.24L508.30 63.24L508.30 63.24Q513.10 63.24 513.10 59.98L513.10 59.98L513.10 59.98Q513.10 56.76 508.30 56.76L508.30 56.76ZM509.74 76.64L509.74 76.64Q514.73 76.64 514.73 73.23L514.73 73.23L514.73 73.23Q514.73 69.82 509.74 69.82L509.74 69.82L501.77 69.82L501.77 76.64L509.74 76.64ZM544.78 84.17L544.78 84.17Q537.29 84.17 533.14 80.09L533.14 80.09L533.14 80.09Q528.98 76.01 528.98 68.52L528.98 68.52L528.98 49.90L538.49 49.90L538.49 68.24L538.49 68.24Q538.49 76.30 544.87 76.30L544.87 76.30L544.87 76.30Q551.21 76.30 551.21 68.24L551.21 68.24L551.21 49.90L560.57 49.90L560.57 68.52L560.57 68.52Q560.57 76.01 556.42 80.09L556.42 80.09L556.42 80.09Q552.26 84.17 544.78 84.17L544.78 84.17ZM583.75 84.17L583.75 84.17Q578.47 84.17 574.27 81.94L574.27 81.94L574.27 81.94Q570.07 79.71 567.67 75.72L567.67 75.72L567.67 75.72Q565.27 71.74 565.27 66.70L565.27 66.70L565.27 66.70Q565.27 61.66 567.67 57.68L567.67 57.68L567.67 57.68Q570.07 53.69 574.27 51.46L574.27 51.46L574.27 51.46Q578.47 49.23 583.75 49.23L583.75 49.23L583.75 49.23Q588.36 49.23 592.06 50.86L592.06 50.86L592.06 50.86Q595.75 52.49 598.20 55.56L598.20 55.56L592.15 61.04L592.15 61.04Q588.89 57.10 584.23 57.10L584.23 57.10L584.23 57.10Q581.50 57.10 579.36 58.30L579.36 58.30L579.36 58.30Q577.22 59.50 576.05 61.68L576.05 61.68L576.05 61.68Q574.87 63.87 574.87 66.70L574.87 66.70L574.87 66.70Q574.87 69.53 576.05 71.72L576.05 71.72L576.05 71.72Q577.22 73.90 579.36 75.10L579.36 75.10L579.36 75.10Q581.50 76.30 584.23 76.30L584.23 76.30L584.23 76.30Q588.89 76.30 592.15 72.36L592.15 72.36L598.20 77.84L598.20 77.84Q595.75 80.91 592.06 82.54L592.06 82.54L592.06 82.54Q588.36 84.17 583.75 84.17L583.75 84.17ZM624.89 49.90L634.39 49.90L634.39 83.50L624.89 83.50L624.89 70.40L611.93 70.40L611.93 83.50L602.42 83.50L602.42 49.90L611.93 49.90L611.93 62.52L624.89 62.52L624.89 49.90ZM652.92 84.17L652.92 84.17Q648.84 84.17 645 83.16L645 83.16L645 83.16Q641.16 82.16 638.76 80.48L638.76 80.48L641.88 73.47L641.88 73.47Q644.14 74.96 647.11 75.87L647.11 75.87L647.11 75.87Q650.09 76.78 652.97 76.78L652.97 76.78L652.97 76.78Q658.44 76.78 658.44 74.04L658.44 74.04L658.44 74.04Q658.44 72.60 656.88 71.91L656.88 71.91L656.88 71.91Q655.32 71.21 651.86 70.44L651.86 70.44L651.86 70.44Q648.07 69.63 645.53 68.69L645.53 68.69L645.53 68.69Q642.98 67.76 641.16 65.69L641.16 65.69L641.16 65.69Q639.34 63.63 639.34 60.12L639.34 60.12L639.34 60.12Q639.34 57.05 641.02 54.58L641.02 54.58L641.02 54.58Q642.70 52.11 646.03 50.67L646.03 50.67L646.03 50.67Q649.37 49.23 654.22 49.23L654.22 49.23L654.22 49.23Q657.53 49.23 660.74 49.97L660.74 49.97L660.74 49.97Q663.96 50.72 666.41 52.16L666.41 52.16L663.48 59.21L663.48 59.21Q658.68 56.62 654.17 56.62L654.17 56.62L654.17 56.62Q651.34 56.62 650.04 57.46L650.04 57.46L650.04 57.46Q648.74 58.30 648.74 59.64L648.74 59.64L648.74 59.64Q648.74 60.99 650.28 61.66L650.28 61.66L650.28 61.66Q651.82 62.33 655.22 63.05L655.22 63.05L655.22 63.05Q659.06 63.87 661.58 64.80L661.58 64.80L661.58 64.80Q664.10 65.74 665.95 67.78L665.95 67.78L665.95 67.78Q667.80 69.82 667.80 73.32L667.80 73.32L667.80 73.32Q667.80 76.35 666.12 78.80L666.12 78.80L666.12 78.80Q664.44 81.24 661.08 82.71L661.08 82.71L661.08 82.71Q657.72 84.17 652.92 84.17L652.92 84.17ZM671.11 73.32L671.11 66.32L685.13 66.32L685.13 73.32L671.11 73.32ZM711.58 83.50L705.48 74.57L700.30 74.57L700.30 83.50L690.79 83.50L690.79 49.90L706.15 49.90L706.15 49.90Q710.71 49.90 714.07 51.41L714.07 51.41L714.07 51.41Q717.43 52.92 719.26 55.73L719.26 55.73L719.26 55.73Q721.08 58.54 721.08 62.33L721.08 62.33L721.08 62.33Q721.08 65.98 719.38 68.69L719.38 68.69L719.38 68.69Q717.67 71.40 714.50 72.94L714.50 72.94L721.75 83.50L711.58 83.50ZM711.48 62.33L711.48 62.33Q711.48 59.98 709.99 58.68L709.99 58.68L709.99 58.68Q708.50 57.39 705.58 57.39L705.58 57.39L700.30 57.39L700.30 67.23L705.58 67.23L705.58 67.23Q708.50 67.23 709.99 65.96L709.99 65.96L709.99 65.96Q711.48 64.68 711.48 62.33L711.48 62.33ZM743.26 84.17L743.26 84.17Q737.93 84.17 733.68 81.92L733.68 81.92L733.68 81.92Q729.43 79.66 727.01 75.68L727.01 75.68L727.01 75.68Q724.58 71.69 724.58 66.70L724.58 66.70L724.58 66.70Q724.58 61.71 727.01 57.72L727.01 57.72L727.01 57.72Q729.43 53.74 733.68 51.48L733.68 51.48L733.68 51.48Q737.93 49.23 743.26 49.23L743.26 49.23L743.26 49.23Q748.58 49.23 752.83 51.48L752.83 51.48L752.83 51.48Q757.08 53.74 759.50 57.72L759.50 57.72L759.50 57.72Q761.93 61.71 761.93 66.70L761.93 66.70L761.93 66.70Q761.93 71.69 759.50 75.68L759.50 75.68L759.50 75.68Q757.08 79.66 752.83 81.92L752.83 81.92L752.83 81.92Q748.58 84.17 743.26 84.17L743.26 84.17ZM743.26 76.30L743.26 76.30Q745.80 76.30 747.86 75.10L747.86 75.10L747.86 75.10Q749.93 73.90 751.13 71.72L751.13 71.72L751.13 71.72Q752.33 69.53 752.33 66.70L752.33 66.70L752.33 66.70Q752.33 63.87 751.13 61.68L751.13 61.68L751.13 61.68Q749.93 59.50 747.86 58.30L747.86 58.30L747.86 58.30Q745.80 57.10 743.26 57.10L743.26 57.10L743.26 57.10Q740.71 57.10 738.65 58.30L738.65 58.30L738.65 58.30Q736.58 59.50 735.38 61.68L735.38 61.68L735.38 61.68Q734.18 63.87 734.18 66.70L734.18 66.70L734.18 66.70Q734.18 69.53 735.38 71.72L735.38 71.72L735.38 71.72Q736.58 73.90 738.65 75.10L738.65 75.10L738.65 75.10Q740.71 76.30 743.26 76.30L743.26 76.30ZM789.38 49.90L798.89 49.90L798.89 83.50L789.38 83.50L789.38 70.40L776.42 70.40L776.42 83.50L766.92 83.50L766.92 49.90L776.42 49.90L776.42 62.52L789.38 62.52L789.38 49.90ZM826.39 83.50L820.30 74.57L815.11 74.57L815.11 83.50L805.61 83.50L805.61 49.90L820.97 49.90L820.97 49.90Q825.53 49.90 828.89 51.41L828.89 51.41L828.89 51.41Q832.25 52.92 834.07 55.73L834.07 55.73L834.07 55.73Q835.90 58.54 835.90 62.33L835.90 62.33L835.90 62.33Q835.90 65.98 834.19 68.69L834.19 68.69L834.19 68.69Q832.49 71.40 829.32 72.94L829.32 72.94L836.57 83.50L826.39 83.50ZM826.30 62.33L826.30 62.33Q826.30 59.98 824.81 58.68L824.81 58.68L824.81 58.68Q823.32 57.39 820.39 57.39L820.39 57.39L815.11 57.39L815.11 67.23L820.39 67.23L820.39 67.23Q823.32 67.23 824.81 65.96L824.81 65.96L824.81 65.96Q826.30 64.68 826.30 62.33L826.30 62.33Z"
     font-weight="bold"
     fill="#141412" /><path
     id="path20"
     d="M517.51 127.50L514.87 120.97L500.66 120.97L498.02 127.50L488.33 127.50L503.16 93.90L512.52 93.90L527.40 127.50L517.51 127.50ZM503.45 113.96L512.09 113.96L507.77 103.21L503.45 113.96ZM555.24 127.50L552.60 120.97L538.39 120.97L535.75 127.50L526.06 127.50L540.89 93.90L550.25 93.90L565.13 127.50L555.24 127.50ZM541.18 113.96L549.82 113.96L545.50 103.21L541.18 113.96ZM588.60 127.50L582.50 118.57L577.32 118.57L577.32 127.50L567.82 127.50L567.82 93.90L583.18 93.90L583.18 93.90Q587.74 93.90 591.10 95.41L591.10 95.41L591.10 95.41Q594.46 96.92 596.28 99.73L596.28 99.73L596.28 99.73Q598.10 102.54 598.10 106.33L598.10 106.33L598.10 106.33Q598.10 109.98 596.40 112.69L596.40 112.69L596.40 112.69Q594.70 115.40 591.53 116.94L591.53 116.94L598.78 127.50L588.60 127.50ZM588.50 106.33L588.50 106.33Q588.50 103.98 587.02 102.68L587.02 102.68L587.02 102.68Q585.53 101.39 582.60 101.39L582.60 101.39L577.32 101.39L577.32 111.23L582.60 111.23L582.60 111.23Q585.53 111.23 587.02 109.96L587.02 109.96L587.02 109.96Q588.50 108.68 588.50 106.33L588.50 106.33ZM628.49 127.50L625.85 120.97L611.64 120.97L609.00 127.50L599.30 127.50L614.14 93.90L623.50 93.90L638.38 127.50L628.49 127.50ZM614.42 113.96L623.06 113.96L618.74 103.21L614.42 113.96ZM656.57 128.17L656.57 128.17Q649.08 128.17 644.93 124.09L644.93 124.09L644.93 124.09Q640.78 120.01 640.78 112.52L640.78 112.52L640.78 93.90L650.28 93.90L650.28 112.24L650.28 112.24Q650.28 120.30 656.66 120.30L656.66 120.30L656.66 120.30Q663.00 120.30 663.00 112.24L663.00 112.24L663.00 93.90L672.36 93.90L672.36 112.52L672.36 112.52Q672.36 120.01 668.21 124.09L668.21 124.09L668.21 124.09Q664.06 128.17 656.57 128.17L656.57 128.17Z"
     font-weight="bold"
     fill="#141412" /></svg>
